X: 35282
T: Rose Of Aranmore, The
R: waltz
M: 3/4
K: Dmajor
AF|D3 A, DF|A/B/A FA, DA,|G3 D GB|d/e/d c/d/c B/c/B|A3 F AB|A2 FA DA|E4- EF|E3 G FE|
D3 A, DF|A/B/A FA, DA,|G3 D GB|d/e/d c/d/c B/c/B|A/B/A- AD FA|G/A/G FA, CE|D4- DD|D3 E FA||
G3 D GB|d/e/d c/d/c B/c/B|A3 F AB|A/B/A FA, DA,|G3 D GB|A2 FA DA|E4- EF|E3 G FE|
D3 A, DF|A/B/A FA, DA,|G3 D GB|d/e/d c/d/c B/c/B|A3 D FA|G/A/G FA, CE|D4- DE|D3 E FE||

